src/icons/icon-128-disabled.svg

<svg height="128" viewBox="0 0 128 128" width="128" xmlns="http://www.w3.org/2000/svg"><g fill="none"><circle cx="64" cy="64" fill="#fff" r="64"/><g fill="#0c0c0d" fill-opacity=".8"><path d="m44 43c0-2.7614237 2.2385763-5 5-5s5 2.2385763 5 5v42c0 2.7614237-2.2385763 5-5 5s-5-2.2385763-5-5z"/><path d="m74 43c0-2.7614237 2.2385763-5 5-5s5 2.2385763 5 5v42c0 2.7614237-2.2385763 5-5 5s-5-2.2385763-5-5z"/></g></g></svg>

<?xml version="1.0" encoding="UTF-8"?>
<svg width="128px" height="128px" viewBox="0 0 128 128" version="1.1" xmlns="http://www.w3.org/2000/svg" xmlns:xlink="http://www.w3.org/1999/xlink">
    <!-- Generator: Sketch 52.5 (67469) - http://www.bohemiancoding.com/sketch -->
    <title>icon-128-disabled</title>
    <desc>Created with Sketch.</desc>
    <g id="icon-128-disabled" stroke="none" stroke-width="1" fill="none" fill-rule="evenodd">
        <g id="Disabled" fill-rule="nonzero">
            <circle id="Background" fill="#FFFFFF" cx="64" cy="64" r="64"></circle>
            <path d="M44,43 C44,40.2385763 46.2385763,38 49,38 C51.7614237,38 54,40.2385763 54,43 L54,85 C54,87.7614237 51.7614237,90 49,90 C46.2385763,90 44,87.7614237 44,85 L44,43 Z" id="Line" fill-opacity="0.8" fill="#0C0C0D"></path>
            <path d="M74,43 C74,40.2385763 76.2385763,38 79,38 C81.7614237,38 84,40.2385763 84,43 L84,85 C84,87.7614237 81.7614237,90 79,90 C76.2385763,90 74,87.7614237 74,85 L74,43 Z" id="Line" fill-opacity="0.8" fill="#0C0C0D"></path>
        </g>
    </g>
</svg>
